packages/icons/src/svg/most-trusted.svg

<svg xmlns="http://www.w3.org/2000/svg" viewBox="0 0 16 16"><path d="M0.000228571429,7.97611429 C0.000228571429,12.3806857 3.57165714,15.9521143 7.97622857,15.9521143 C12.3808,15.9521143 15.9522286,12.3806857 15.9522286,7.97611429 C15.9522286,3.57154286 12.3808,0.000114285714 7.97622857,0.000114285714 C3.57165714,0.000114285714 0.000228571429,3.57154286 0.000228571429,7.97611429 Z" class="ti-full-bg-circle"></path>
                <polygon class="ti-oversleeve" points="3.32 11.9089143 4.92342857 11.9089143 4.92342857 7.60491429 3.32 7.60491429"></polygon>
                <path d="M11.9131429,7.87908571 L11.7302857,7.89737143 C12.4982857,8.1168 12.2457143,9.09622857 11.6948571,9.15451429 L11.5565714,9.1568 C12.2937143,9.34422857 12.0525714,10.3682286 11.4754286,10.4299429 L11.312,10.4242286 C11.9142857,10.5225143 11.904,11.6688 10.9931429,11.6688 L6.45371429,11.6710857 C6.13371429,11.6710857 5.84228571,11.3053714 5.60685714,11.3053714 L5.40114286,11.3053714 L5.40114286,7.77165714 C5.656,7.61165714 5.97142857,7.4048 6.14628571,7.25737143 C6.47657143,6.97508571 7.76228571,5.3328 7.832,4.51108571 C7.86171429,4.14994286 7.74628571,3.21394286 7.81942857,3.03451429 C7.89142857,2.85508571 8.49142857,2.66422857 8.79771429,2.94994286 C9.104,3.23565714 9.21257143,4.03794286 9.21257143,4.64251429 C9.21257143,5.24708571 8.98628571,6.17737143 8.86628571,6.65965714 L12.0114286,6.65965714 C12.7851429,6.66194286 12.7314286,7.86765714 11.9131429,7.87908571" class="ti-hand-like"></path></svg>

<svg xmlns="http://www.w3.org/2000/svg" viewBox="0 0 16 16">
	<path d="M0 7.976a7.977 7.977 0 1 0 15.953-.001A7.977 7.977 0 0 0 0 7.976z" class="ti-full-bg-circle"/>
	<path class="ti-oversleeve" d="M3.32 11.909h1.603V7.605H3.32z"/>
	<path d="M11.913 7.88l-.183.017c.768.22.516 1.2-.035 1.258l-.138.002c.737.187.496 1.211-.082 1.273l-.163-.006c.602.099.592 1.245-.319 1.245l-4.54.002c-.32 0-.61-.366-.846-.366H5.4V7.772c.255-.16.57-.367.745-.515.33-.282 1.616-1.924 1.686-2.746.03-.361-.086-1.297-.013-1.476.072-.18.672-.37.979-.085.306.286.415 1.088.415 1.693 0 .604-.227 1.534-.347 2.017h3.145c.774.002.72 1.208-.098 1.22" class="ti-hand-like"/>
</svg>
